**kern	**silbe	**harmony	**phrase	**leadinstrument	**rhyme	**timestamp	**harte
*ICvox	*	*M4/4	*	*	*	*	*M4/4
*VRlead	*	*	*	*	*	*	*
*Hstimme	*	*	*	*	*	*	*
*C:	*	*C:	*	*	*	*	*C:
*M4/4	*	*	*	*	*	*	*
*clefC3	*	*	*	*	*	*	*
r;	.	1r;	.	r	.	0	N.C.
=1	=1	=1	=1	=1	=1	=1	=1
*>Letter>A	*>Letter>A	*>Letter>A	*>Letter>A	*>Letter>A	*>Letter>A	*>Letter>A	*>Letter>A
*>Label>Verse	*>Label>Verse	*>Label>Verse	*>Label>Verse	*>Label>Verse	*>Label>Verse	*>Label>Verse	*>Label>Verse
4r	.	1CM	newline	voice	.	0.564	C:maj
8r	.	.	.	.	.	.	.
16B	Have	.	.	.	.	.	.
16B	you	.	.	.	.	.	.
=1	=1	=1	=1	=1	=1	=1	=1
16c	e-	.	.	.	.	.	.
16c	-ver	.	.	.	.	.	.
16B	met	.	.	.	.	.	.
16B	a	.	.	.	.	.	.
8G	girl	.	.	.	.	.	.
16G	that	.	.	.	.	.	.
16F	you	.	.	.	.	.	.
=2	=2	=2	=2	=2	=2	=2	=2
8G	tried	1FM	.	voice	.	3.407	F:maj
16F	to	.	.	.	.	.	.
16G	date	.	.	.	A	.	.
8r	.	.	.	.	.	.	.
16G	but	.	.	.	.	.	.
16G	a	.	.	.	.	.	.
=2	=2	=2	=2	=2	=2	=2	=2
16A	year	.	.	.	.	.	.
16G	to	.	.	.	.	.	.
8G	make	.	.	.	.	.	.
8G	love,	.	.	.	.	.	.
8G	she	.	.	.	.	.	.
=3	=3	=3	=3	=3	=3	=3	=3
16G	wan-	1Dm	.	voice	.	6.25	D:min/b3
16G	-ted	.	.	.	.	.	.
16G	you	.	.	.	.	.	.
16G	to	.	.	.	.	.	.
8G	wait	.	.	.	A	.	.
8r	.	.	.	.	.	.	.
=3	=3	=3	=3	=3	=3	=3	=3
16c	Let	.	.	.	.	.	.
16c	me	.	.	.	.	.	.
24B	tell	.	.	.	.	.	.
24B	ya	.	.	.	.	.	.
24B	a	.	.	.	.	.	.
16G	sto-	.	.	.	.	.	.
16G	-ry	.	.	.	.	.	.
16G	of	.	.	.	.	.	.
[16G	my	.	.	.	.	.	.
=4	=4	=4	=4	=4	=4	=4	=4
16G]	_	2Dm	.	voice	.	9.092	D:min/b3
16G	si-	.	.	.	.	.	.
16G	-tu-	.	.	.	.	.	.
[16G	-a	.	.	.	(B	.	.
16G]	_	.	.	.	.	.	.
16G	tion,	.	.	.	b)	.	.
16G	I	.	.	.	.	.	.
16G	was	.	.	.	.	.	.
=4	=4	=4	=4	=4	=4	=4	=4
16A	tal-	2GMm	.	voice	.	10.514	G:7
16G	-kin'	.	.	.	.	.	.
16A	to	.	.	.	.	.	.
16G	this	.	.	.	.	.	.
16A	girl	.	.	.	.	.	.
16r	.	.	.	.	.	.	.
16G	from	.	.	.	.	.	.
16G	the	.	.	.	.	.	.
=5	=5	=5	=5	=5	=5	=5	=5
16c	U-	1CM	newline	voice	.	11.935	C:maj
8c	-S	.	.	.	.	.	.
[16B	na	.	.	.	(B	.	.
16B]	_	.	.	.	.	.	.
16G	tion	.	.	.	b)	.	.
16r	.	.	.	.	.	.	.
16B	The	.	.	.	.	.	.
=5	=5	=5	=5	=5	=5	=5	=5
16c	way	.	.	.	.	.	.
16B	that	.	.	.	.	.	.
16G	I	.	.	.	.	.	.
[16B	met	.	.	.	.	.	.
16B]	_	.	.	.	.	.	.
16G	her	.	.	.	.	.	.
16G	was	.	.	.	.	.	.
16F	on	.	.	.	.	.	.
=6	=6	=6	=6	=6	=6	=6	=6
16G	tour	1FM	.	voice	C	14.741	F:maj
16G	at	.	.	.	.	.	.
16F	a	.	.	.	.	.	.
[16G	con	.	.	.	.	.	.
16G]	_	.	.	.	.	.	.
16G	cert	.	.	.	D	.	.
16r	.	.	.	.	.	.	.
16G	she	.	.	.	.	.	.
=6	=6	=6	=6	=6	=6	=6	=6
8G	had	.	.	.	.	.	.
8A	long	.	.	.	.	.	.
8G	hair	.	.	.	.	.	.
16G	and	.	.	.	.	.	.
16G	a	.	.	.	.	.	.
=7	=7	=7	=7	=7	=7	=7	=7
16G	short	1Dm	.	voice	C	17.546	D:min/b3
16r	.	.	.	.	.	.	.
16B	mi-	.	.	.	.	.	.
16G	-ni-	.	.	.	.	.	.
8G	-skirt	.	.	.	D	.	.
16r	.	.	.	.	.	.	.
16B	I	.	.	.	.	.	.
=7	=7	=7	=7	=7	=7	=7	=7
16B	just	.	.	.	.	.	.
16A	got	.	.	.	.	.	.
8G	on	.	.	.	.	.	.
8A	stage,	.	.	.	.	.	.
16G	drip-	.	.	.	.	.	.
16G	-pin',	.	.	.	.	.	.
=8	=8	=8	=8	=8	=8	=8	=8
16A	pour-	2Dm	.	voice	.	20.352	D:min/b3
16A	-in'	.	.	.	.	.	.
16G	with	.	.	.	.	.	.
[16F	sweat	.	.	.	E	.	.
16F]	_	.	.	.	.	.	.
16r	.	.	.	.	.	.	.
16B	I	.	.	.	.	.	.
16G	was	.	.	.	.	.	.
=8	=8	=8	=8	=8	=8	=8	=8
16A	wal-	2GMm	.	voice	.	21.755	G:7
16A	-kin'	.	.	.	.	.	.
16A	through	.	.	.	.	.	.
16G	the	.	.	.	.	.	.
8A	crowd	.	.	.	.	.	.
16r	.	.	.	.	.	.	.
16G	and	.	.	.	.	.	.
=9	=9	=9	=9	=9	=9	=9	=9
16B	guess	1CM	newline	voice	.	23.157	C:maj
16B	who	.	.	.	.	.	.
16B	I	.	.	.	.	.	.
16G	met	.	.	.	E	.	.
8r	.	.	.	.	.	.	.
16r	.	.	.	.	.	.	.
16B	I	.	.	.	.	.	.
=9	=9	=9	=9	=9	=9	=9	=9
16c	whis-	.	.	.	.	.	.
16c	-pered	.	.	.	.	.	.
16B	in	.	.	.	.	.	.
16B	her	.	.	.	.	.	.
8G	ear,	.	.	.	.	.	.
8G	\\\"come	.	.	.	.	.	.
=10	=10	=10	=10	=10	=10	=10	=10
16G	to	1FM	.	voice	.	25.976	F:maj
16G	the	.	.	.	.	.	.
16G	pic-	.	.	.	.	.	.
16G	-ture	.	.	.	.	.	.
16G	booth	.	.	.	F	.	.
16G	so	.	.	.	.	.	.
16G	I	.	.	.	.	.	.
16G	can	.	.	.	.	.	.
=10	=10	=10	=10	=10	=10	=10	=10
16G	ask	.	.	.	.	.	.
16G	you	.	.	.	.	.	.
16G	some	.	.	.	.	.	.
16G	ques-	.	.	.	.	.	.
16G	-tions	.	.	.	.	.	.
16G	to	.	.	.	.	.	.
24G	see	.	.	.	.	.	.
24G	if	.	.	.	.	.	.
24G	you	.	.	.	.	.	.
=11	=11	=11	=11	=11	=11	=11	=11
8r	.	1Dm	.	voice	.	28.795	D:min/b3
16B	hun-	.	.	.	.	.	.
16G	-dred	.	.	.	.	.	.
8B	proof	.	.	.	F	.	.
16r	.	.	.	.	.	.	.
16G	I	.	.	.	.	.	.
=11	=11	=11	=11	=11	=11	=11	=11
8G	asked	.	.	.	.	.	.
16G	her	.	.	.	.	.	.
16G	her	.	.	.	.	.	.
16G	name,	.	.	.	.	.	.
16G	she	.	.	.	.	.	.
8G	said	.	.	.	.	.	.
=12	=12	=12	=12	=12	=12	=12	=12
16A	\\\"blah,	2Dm	.	voice	G	31.614	D:min/b3
8A	blah,	.	.	.	G	.	.
[16G	blah	.	.	.	G	.	.
16G]	,\\\"	.	.	.	.	.	.
16G	she	.	.	.	.	.	.
8G	had	.	.	.	.	.	.
=12	=12	=12	=12	=12	=12	=12	=12
8B	9-	2GMm	.	voice	.	33.023	G:7
8A	-10	.	.	.	.	.	.
8G	pants	.	.	.	.	.	.
16G	and	.	.	.	.	.	.
16G	a	.	.	.	.	.	.
=13	=13	=13	=13	=13	=13	=13	=13
16A	ve-	1CM	newline	voice	.	34.433	C:maj
16B	-ry	.	.	.	.	.	.
8A	big	.	.	.	.	.	.
8G	bra	.	.	.	G	.	.
16r	.	.	.	.	.	.	.
16A	I	.	.	.	.	.	.
=13	=13	=13	=13	=13	=13	=13	=13
16B	took	.	.	.	.	.	.
16B	a	.	.	.	.	.	.
24c	cou-	.	.	.	.	.	.
24c	-ple	.	.	.	.	.	.
24B	of	.	.	.	.	.	.
8B	flicks,	.	.	.	.	.	.
8A	and	.	.	.	.	.	.
=14	=14	=14	=14	=14	=14	=14	=14
16A	she	1FM	.	voice	.	37.25	F:maj
16G	was	.	.	.	.	.	.
16G	en-	.	.	.	.	.	.
[16A	-thused,	.	.	.	H	.	.
16A]	_	.	.	.	.	.	.
16G	I	.	.	.	.	.	.
8G	said,	.	.	.	.	.	.
=14	=14	=14	=14	=14	=14	=14	=14
24A	\\\"how	.	.	.	.	.	.
24A	do	.	.	.	.	.	.
24A	you	.	.	.	.	.	.
16A	like	.	.	.	.	.	.
16A	the	.	.	.	.	.	.
16A	show?\\\"	.	.	.	.	.	.
16A	She	.	.	.	.	.	.
16A	said,	.	.	.	.	.	.
16A	\\\"I	.	.	.	.	.	.
=15	=15	=15	=15	=15	=15	=15	=15
16A	was	1Dm	.	voice	.	40.067	D:min/b3
16A	ve-	.	.	.	.	.	.
16A	-ry	.	.	.	.	.	.
16G	a-	.	.	.	.	.	.
8G	-mused	.	.	.	H	.	.
16r	.	.	.	.	.	.	.
16A	I	.	.	.	.	.	.
=15	=15	=15	=15	=15	=15	=15	=15
16A	star-	.	.	.	.	.	.
16A	-ted	.	.	.	.	.	.
16A	thro-	.	.	.	.	.	.
16G	-win'	.	.	.	.	.	.
16G	bass,	.	.	.	I	.	.
16A	she	.	.	.	.	.	.
16A	star-	.	.	.	.	.	.
16A	-ted	.	.	.	.	.	.
=16	=16	=16	=16	=16	=16	=16	=16
16A	thro-	2Dm	.	voice	.	42.884	D:min/b3
16A	-win'	.	.	.	.	.	.
16G	back	.	.	.	.	.	.
[16A	mid	.	.	.	.	.	.
16A]	_	.	.	.	.	.	.
8A	range,	.	.	.	I	.	.
16A	but	.	.	.	.	.	.
=16	=16	=16	=16	=16	=16	=16	=16
16A	when	2GMm	.	voice	.	44.292	G:7
16A	I	.	.	.	.	.	.
16A	sprung	.	.	.	.	.	.
16A	the	.	.	.	.	.	.
16B	ques-	.	.	.	.	.	.
16B	-tion	.	.	.	.	.	.
16r	.	.	.	.	.	.	.
16B	she	.	.	.	.	.	.
=17	=17	=17	=17	=17	=17	=17	=17
16B	ac-	1CM	newline	voice	.	45.701	C:maj
16A	-ted	.	.	.	.	.	.
16A	kind	.	.	.	.	.	.
16G	of	.	.	.	.	.	.
8A	strange	.	.	.	I	.	.
8r	.	.	.	.	.	.	.
=17	=17	=17	=17	=17	=17	=17	=17
24c	Then	.	.	.	.	.	.
24c	when	.	.	.	.	.	.
24c	I	.	.	.	.	.	.
8A	asked	.	.	.	.	.	.
16A	\\\"do	.	.	.	.	.	.
16A	you	.	.	.	.	.	.
16A	have	.	.	.	.	.	.
16A	a	.	.	.	.	.	.
=18	=18	=18	=18	=18	=18	=18	=18
16A	man?\\\"	1FM	.	voice	.	48.511	F:maj
16A	she	.	.	.	.	.	.
16A	tried	.	.	.	.	.	.
16A	to	.	.	.	.	.	.
16G	pre-	.	.	.	.	.	.
8A	-tend,	.	.	.	J	.	.
16G	she	.	.	.	.	.	.
=18	=18	=18	=18	=18	=18	=18	=18
8A	said,	.	.	.	.	.	.
16G	\\\"no,	.	.	.	.	.	.
[16G	I	.	.	.	.	.	.
16G]	_	.	.	.	.	.	.
16A	don't	.	.	.	.	.	.
16r	.	.	.	.	.	.	.
16G	I	.	.	.	.	.	.
=19	=19	=19	=19	=19	=19	=19	=19
16A	on-	1Dm	.	voice	.	51.32	D:min/b3
16G	-ly	.	.	.	.	.	.
16F	have	.	.	.	.	.	.
[16F	a	.	.	.	.	.	.
16F]	_	.	.	.	.	.	.
8.G	friend.\\\"	.	.	.	J	.	.
=19	=19	=19	=19	=19	=19	=19	=19
4r	.	.	.	.	.	.	.
16r	.	.	.	.	.	.	.
8c	_	.	.	.	.	.	.
16ee	Come	.	.	.	.	.	.
=20	=20	=20	=20	=20	=20	=20	=20
4A	on!	2Dm	.	voice	.	54.13	D:min/b3
16r	.	.	.	.	.	.	.
16c	I'm	.	.	.	.	.	.
16c	not	.	.	.	.	.	.
16A	e-	.	.	.	.	.	.
=20	=20	=20	=20	=20	=20	=20	=20
16A	-ven	2GMm	.	voice	.	55.535	G:7
16c	go-	.	.	.	.	.	.
16c	-in'	.	.	.	.	.	.
16A	for	.	.	.	.	.	.
16F	it	.	.	.	.	.	.
8r	.	.	.	.	.	.	.
16c	this	.	.	.	.	.	.
=21	=21	=21	=21	=21	=21	=21	=21
*>Letter>B	*>Letter>B	*>Letter>B	*>Letter>B	*>Letter>B	*>Letter>B	*>Letter>B	*>Letter>B
*>Label>Chorus	*>Label>Chorus	*>Label>Chorus	*>Label>Chorus	*>Label>Chorus	*>Label>Chorus	*>Label>Chorus	*>Label>Chorus
16A	what	1CM	newline	voice	.	56.94	C:maj
32B	I'm	.	.	.	.	.	.
32B	gon-	.	.	.	.	.	.
16A	-na	.	.	.	.	.	.
16F	sing	.	.	.	.	.	.
4r	.	.	.	.	.	.	.
=21	=21	=21	=21	=21	=21	=21	=21
4e	You!	.	.	.	.	.	.
4r	.	.	.	.	.	.	.
=22	=22	=22	=22	=22	=22	=22	=22
16r	.	1FM	.	voice	.	59.759	F:maj
8e	You	.	.	.	.	.	.
16e	got	.	.	.	.	.	.
16r	.	.	.	.	.	.	.
16d	what	.	.	.	.	.	.
8e	I	.	.	.	.	.	.
=22	=22	=22	=22	=22	=22	=22	=22
8d#q	_	.	.	.	.	.	.
4e	need	.	.	.	.	.	.
4d	_	.	.	.	.	.	.
=23	=23	=23	=23	=23	=23	=23	=23
4r	.	1Dm	.	voice	.	62.578	D:min/b3
16r	.	.	.	.	.	.	.
16A	But	.	.	.	.	.	.
8c	you	.	.	.	.	.	.
=23	=23	=23	=23	=23	=23	=23	=23
8d	say	.	.	.	.	.	.
8e	he's	.	.	.	.	.	.
8d	just	.	.	.	.	.	.
16c	a	.	.	.	.	.	.
[16d	friend	.	.	.	.	.	.
=24	=24	=24	=24	=24	=24	=24	=24
8d]	_	2Dm	.	voice	.	65.397	D:min/b3
8r	.	.	.	.	.	.	.
8r	.	.	.	.	.	.	.
16A	and	.	.	.	.	.	.
16c	you	.	.	.	.	.	.
=24	=24	=24	=24	=24	=24	=24	=24
8d	say	2GMm	.	voice	.	66.806	G:7
8e	he's	.	.	.	.	.	.
8d	just	.	.	.	.	.	.
16c	a	.	.	.	.	.	.
16d	friend	.	.	.	.	.	.
=25	=25	=25	=25	=25	=25	=25	=25
16r	.	1CM	newline	voice	.	68.216	C:maj
8.~g	oh	.	.	.	.	.	.
8g	ba-	.	.	.	.	.	.
8g	-by,	.	.	.	.	.	.
=25	=25	=25	=25	=25	=25	=25	=25
2e	you	.	.	.	.	.	.
=26	=26	=26	=26	=26	=26	=26	=26
8r	.	1FM	.	voice	.	71.027	F:maj
16r	.	.	.	.	.	.	.
[16~g	Got	.	.	.	.	.	.
16~g]	_	.	.	.	.	.	.
16d	what	.	.	.	.	.	.
8e	I	.	.	.	.	.	.
=26	=26	=26	=26	=26	=26	=26	=26
8d#q	_	.	.	.	.	.	.
4e	_	.	.	.	.	.	.
4d	_	.	.	.	.	.	.
=27	=27	=27	=27	=27	=27	=27	=27
4r	.	1Dm	.	voice	.	73.838	D:min/b3
16r	.	.	.	.	.	.	.
16A	and	.	.	.	.	.	.
8c	you	.	.	.	.	.	.
=27	=27	=27	=27	=27	=27	=27	=27
8~d	say	.	.	.	.	.	.
8~e	he's	.	.	.	.	.	.
8~d	just	.	.	.	.	.	.
16~c	a	.	.	.	.	.	.
[16~d	friend	.	.	.	.	.	.
=28	=28	=28	=28	=28	=28	=28	=28
8~d]	_	2Dm	.	voice	.	76.649	D:min/b3
8r	.	.	.	.	.	.	.
8r	.	.	.	.	.	.	.
16~A	and	.	.	.	.	.	.
16~c	you	.	.	.	.	.	.
=28	=28	=28	=28	=28	=28	=28	=28
8d	say	2GMm	.	voice	.	78.054	G:7
8e	he's	.	.	.	.	.	.
8d	just	.	.	.	.	.	.
16c	a	.	.	.	.	.	.
16d	friend	.	.	.	.	.	.
=29	=29	=29	=29	=29	=29	=29	=29
16r	.	1CM	newline	voice	.	79.459	C:maj
[8.~g	oh,	.	.	.	.	.	.
8g]	_	.	.	.	.	.	.
8g	ba	.	.	.	.	.	.
=29	=29	=29	=29	=29	=29	=29	=29
8g	_	.	.	.	.	.	.
8g	by,	.	.	.	.	.	.
4e	you	.	.	.	.	.	.
=30	=30	=30	=30	=30	=30	=30	=30
8r	.	1FM	.	voice	.	82.279	F:maj
16r	.	.	.	.	.	.	.
[16~g	Got	.	.	.	.	.	.
16~g]	_	.	.	.	.	.	.
16d	what	.	.	.	.	.	.
8e	I	.	.	.	.	.	.
=30	=30	=30	=30	=30	=30	=30	=30
8d#q	_	.	.	.	.	.	.
4e	need	.	.	.	.	.	.
4d	_	.	.	.	.	.	.
=31	=31	=31	=31	=31	=31	=31	=31
4r	.	1Dm	.	voice	.	85.099	D:min/b3
16r	.	.	.	.	.	.	.
16A	But	.	.	.	.	.	.
8c	you	.	.	.	.	.	.
=31	=31	=31	=31	=31	=31	=31	=31
8~d	say	.	.	.	.	.	.
8~e	he's	.	.	.	.	.	.
8~d	just	.	.	.	.	.	.
16~c	a	.	.	.	.	.	.
[16~d	friend	.	.	.	.	.	.
=32	=32	=32	=32	=32	=32	=32	=32
8~d]	_	2Dm	.	voice	.	87.919	D:min/b3
8r	.	.	.	.	.	.	.
8r	.	.	.	.	.	.	.
16~A	and	.	.	.	.	.	.
16~c	you	.	.	.	.	.	.
=32	=32	=32	=32	=32	=32	=32	=32
8~d	say	2GMm	.	voice	.	89.329	G:7
8~e	he's	.	.	.	.	.	.
8d	just	.	.	.	.	.	.
8c	a	.	.	.	.	.	.
=33	=33	=33	=33	=33	=33	=33	=33
*>Letter>A	*>Letter>A	*>Letter>A	*>Letter>A	*>Letter>A	*>Letter>A	*>Letter>A	*>Letter>A
*>Label>Verse	*>Label>Verse	*>Label>Verse	*>Label>Verse	*>Label>Verse	*>Label>Verse	*>Label>Verse	*>Label>Verse
4~d	friend	1CM	newline	voice	.	90.739	C:maj
8r	.	.	.	.	.	.	.
16d	So	.	.	.	.	.	.
16d	I	.	.	.	.	.	.
=33	=33	=33	=33	=33	=33	=33	=33
16d	took	.	.	.	.	.	.
16A	blah-	.	.	.	.	.	.
16A	-blah's	.	.	.	.	.	.
16A	word	.	.	.	.	.	.
16r	.	.	.	.	.	.	.
16G	for	.	.	.	.	.	.
8A	it	.	.	.	.	.	.
=34	=34	=34	=34	=34	=34	=34	=34
16A	at	1FM	.	voice	.	93.548	F:maj
8A	this	.	.	.	.	.	.
[16A	time,	.	.	.	K	.	.
16A]	_	.	.	.	.	.	.
16B	I	.	.	.	.	.	.
8G	thought	.	.	.	.	.	.
=34	=34	=34	=34	=34	=34	=34	=34
16A	just	.	.	.	.	.	.
16A	ha-	.	.	.	.	.	.
16A	-vin'	.	.	.	.	.	.
16A	a	.	.	.	.	.	.
16A	friend	.	.	.	.	.	.
16r	.	.	.	.	.	.	.
16B	could-	.	.	.	.	.	.
16B	-n't	.	.	.	.	.	.
=35	=35	=35	=35	=35	=35	=35	=35
16B	be	1Dm	.	voice	.	96.356	D:min/b3
8G	no	.	.	.	.	.	.
[16G	crime	.	.	.	K	.	.
8G]	_	.	.	.	.	.	.
16r	.	.	.	.	.	.	.
16A	Cuz	.	.	.	.	.	.
=35	=35	=35	=35	=35	=35	=35	=35
16A	I	.	.	.	.	.	.
8A	have	.	.	.	.	.	.
[16B	friends	.	.	.	.	.	.
8B]	_	.	.	.	.	.	.
16r	.	.	.	.	.	.	.
16A	and	.	.	.	.	.	.
=36	=36	=36	=36	=36	=36	=36	=36
8A	that's	2Dm	.	voice	.	99.164	D:min/b3
16A	a	.	.	.	.	.	.
[16A	fact,	.	.	.	L	.	.
8A]	_	.	.	.	.	.	.
8A	like	.	.	.	.	.	.
=36	=36	=36	=36	=36	=36	=36	=36
8G	Ag-	2GMm	.	voice	.	100.568	G:7
8D	-nes,	.	.	.	.	.	.
16A	A-	.	.	.	.	.	.
16A	-ga-	.	.	.	.	.	.
16A	-tha,	.	.	.	.	.	.
16A	Ger-	.	.	.	.	.	.
=37	=37	=37	=37	=37	=37	=37	=37
8G	-maine	1CM	newline	voice	.	101.972	C:maj
16F	and	.	.	.	.	.	.
[16G	Jack	.	.	.	L	.	.
16G]	_	.	.	.	.	.	.
16r	.	.	.	.	.	.	.
16r	.	.	.	.	.	.	.
16c	For-	.	.	.	.	.	.
=37	=37	=37	=37	=37	=37	=37	=37
16c	-get	.	.	.	.	.	.
16A	a-	.	.	.	.	.	.
16A	-bout	.	.	.	.	.	.
[16A	that,	.	.	.	.	.	.
16A]	_	.	.	.	.	.	.
8A	let's	.	.	.	.	.	.
16A	go	.	.	.	.	.	.
=38	=38	=38	=38	=38	=38	=38	=38
8A	in-	1FM	.	voice	.	104.791	F:maj
16A	-to	.	.	.	.	.	.
16A	the	.	.	.	.	.	.
16G	sto-	.	.	.	(M	.	.
16E	-ry	.	.	.	m)	.	.
16r	.	.	.	.	.	.	.
16G	a-	.	.	.	.	.	.
=38	=38	=38	=38	=38	=38	=38	=38
16A	-bout	.	.	.	.	.	.
16A	a	.	.	.	.	.	.
16A	girl	.	.	.	.	.	.
16A	named	.	.	.	.	.	.
16A	\\\"blah-	.	.	.	.	.	.
16A	-blah-	.	.	.	.	.	.
8A	-blah\\\"	.	.	.	.	.	.
=39	=39	=39	=39	=39	=39	=39	=39
8G	that	1Dm	.	voice	.	107.61	D:min/b3
16G	a-	.	.	.	.	.	.
[16G	-dored	.	.	.	(M	.	.
16G]	_	.	.	.	.	.	.
16E	me	.	.	.	m)	.	.
16r	.	.	.	.	.	.	.
16r	.	.	.	.	.	.	.
=39	=39	=39	=39	=39	=39	=39	=39
16B	So	.	.	.	.	.	.
16B	we	.	.	.	.	.	.
16B	star-	.	.	.	.	.	.
16A	-ted	.	.	.	.	.	.
8A	tal-	.	.	.	.	.	.
8A	-kin',	.	.	.	.	.	.
=40	=40	=40	=40	=40	=40	=40	=40
16A	get-	2Dm	.	voice	.	110.428	D:min/b3
16A	-tin'	.	.	.	.	.	.
16A	fa-	.	.	.	.	.	.
[16A	-mi	.	.	.	(N	.	.
16A]	_	.	.	.	.	.	.
8A	liar	.	.	.	n)	.	.
16r	.	.	.	.	.	.	.
=40	=40	=40	=40	=40	=40	=40	=40
24B	spen-	2GMm	.	voice	.	111.838	G:7
24B	-din'	.	.	.	.	.	.
24B	a	.	.	.	.	.	.
16A	lot	.	.	.	.	.	.
16A	of	.	.	.	.	.	.
8A	time	.	.	.	.	.	.
16r	.	.	.	.	.	.	.
16A	so	.	.	.	.	.	.
=41	=41	=41	=41	=41	=41	=41	=41
8A	we	1CM	newline	voice	.	113.247	C:maj
16A	can	.	.	.	.	.	.
[16A	build	.	.	.	(N	.	.
16A]	_	.	.	.	.	.	.
8A	a	.	.	.	n)	.	.
16A	re-	.	.	.	.	.	.
=41	=41	=41	=41	=41	=41	=41	=41
8B	-la-	.	.	.	.	.	.
8G	-tion-	.	.	.	.	.	.
8E	-ship	.	.	.	.	.	.
16r	.	.	.	.	.	.	.
16A	or	.	.	.	.	.	.
=42	=42	=42	=42	=42	=42	=42	=42
16B	some	1FM	.	voice	.	116.058	F:maj
16A	un-	.	.	.	.	.	.
16A	-der-	.	.	.	.	.	.
[16A	-stan	.	.	.	(O	.	.
16A]	_	.	.	.	.	.	.
8A	ding,	.	.	.	o)	.	.
16A	how	.	.	.	.	.	.
=42	=42	=42	=42	=42	=42	=42	=42
16B	it's	.	.	.	.	.	.
16A	gon-	.	.	.	.	.	.
16A	-na	.	.	.	.	.	.
16A	be	.	.	.	.	.	.
16A	in	.	.	.	.	.	.
16A	the	.	.	.	.	.	.
16A	fu-	.	.	.	.	.	.
16A	-ture	.	.	.	.	.	.
=43	=43	=43	=43	=43	=43	=43	=43
8A	we	1Dm	.	voice	.	118.869	D:min/b3
16A	was	.	.	.	.	.	.
[16A	plan	.	.	.	(O	.	.
16A]	_	.	.	.	.	.	.
16A	ning	.	.	.	o)	.	.
8r	.	.	.	.	.	.	.
=43	=43	=43	=43	=43	=43	=43	=43
16d	Ev-	.	.	.	.	.	.
16d	-'ry-	.	.	.	.	.	.
8c	-thing	.	.	.	.	.	.
16B	soun-	.	.	.	.	.	.
16B	-ded	.	.	.	.	.	.
8A	so	.	.	.	.	.	.
=44	=44	=44	=44	=44	=44	=44	=44
16A	dan-	2Dm	.	voice	.	121.68	D:min/b3
16A	-dy	.	.	.	.	.	.
16A	and	.	.	.	.	.	.
[16A	sweet	.	.	.	P	.	.
16A]	_	.	.	.	.	.	.
16r	.	.	.	.	.	.	.
16A	I	.	.	.	.	.	.
16A	had	.	.	.	.	.	.
=44	=44	=44	=44	=44	=44	=44	=44
12A	no	2GMm	.	voice	.	123.086	G:7
12A	i-	.	.	.	.	.	.
[12B	-de	.	.	.	.	.	.
16B]	_	.	.	.	.	.	.
16A	a	.	.	.	.	.	.
16A	I	.	.	.	.	.	.
16A	was	.	.	.	.	.	.
=45	=45	=45	=45	=45	=45	=45	=45
16A	in	1CM	newline	voice	.	124.491	C:maj
16A	for	.	.	.	.	.	.
16A	a	.	.	.	.	.	.
[16A	treat	.	.	.	P	.	.
16A]	_	.	.	.	.	.	.
16r	.	.	.	.	.	.	.
16c	Af-	.	.	.	.	.	.
16c	-ter	.	.	.	.	.	.
=45	=45	=45	=45	=45	=45	=45	=45
16A	this	.	.	.	.	.	.
16A	was	.	.	.	.	.	.
16A	es-	.	.	.	.	.	.
[16A	-ta	.	.	.	.	.	.
16A]	_	.	.	.	.	.	.
16A	blished,	.	.	.	.	.	.
16A	ev-	.	.	.	.	.	.
16A	-'ry-	.	.	.	.	.	.
=46	=46	=46	=46	=46	=46	=46	=46
8A	-thing	1FM	.	voice	.	127.305	F:maj
16A	was	.	.	.	.	.	.
[16B	cool	.	.	.	Q	.	.
16B]	_	.	.	.	.	.	.
8r	.	.	.	.	.	.	.
16A	the	.	.	.	.	.	.
=46	=46	=46	=46	=46	=46	=46	=46
8A	tour	.	.	.	.	.	.
16A	was	.	.	.	.	.	.
[16A	o	.	.	.	.	.	.
16A]	_	.	.	.	.	.	.
16A	ver	.	.	.	.	.	.
16A	and	.	.	.	.	.	.
16A	she	.	.	.	.	.	.
=47	=47	=47	=47	=47	=47	=47	=47
16A	went	1Dm	.	voice	.	130.118	D:min/b3
16A	back	.	.	.	.	.	.
16A	to	.	.	.	.	.	.
[16B	school	.	.	.	Q	.	.
16B]	_	.	.	.	.	.	.
8r	.	.	.	.	.	.	.
16A	I	.	.	.	.	.	.
=47	=47	=47	=47	=47	=47	=47	=47
8A	called	.	.	.	.	.	.
16A	ev-	.	.	.	.	.	.
16A	-'ry	.	.	.	.	.	.
8A	day	.	.	.	.	.	.
16r	.	.	.	.	.	.	.
16A	to	.	.	.	.	.	.
=48	=48	=48	=48	=48	=48	=48	=48
16A	see	2Dm	.	voice	.	132.932	D:min/b3
16A	how	.	.	.	.	.	.
16A	she	.	.	.	.	.	.
16A	was	.	.	.	.	.	.
16A	do-	.	.	.	(R	.	.
16A	-in',	.	.	.	r)	.	.
16A	ev-	.	.	.	.	.	.
16A	-'ry	.	.	.	.	.	.
=48	=48	=48	=48	=48	=48	=48	=48
16A	time	2GMm	.	voice	.	134.338	G:7
16A	that	.	.	.	.	.	.
16A	I	.	.	.	.	.	.
[16A	called	.	.	.	.	.	.
16A]	_	.	.	.	.	.	.
16A	her	.	.	.	.	.	.
16r	.	.	.	.	.	.	.
16A	it	.	.	.	.	.	.
=49	=49	=49	=49	=49	=49	=49	=49
16B	seemed	1CM	newline	voice	.	135.745	C:maj
16B	some-	.	.	.	.	.	.
16B	-thing	.	.	.	.	.	.
16B	was	.	.	.	.	.	.
16c	brew-	.	.	.	(R	.	.
16A	-ing	.	.	.	r)	.	.
16r	.	.	.	.	.	.	.
16B	I	.	.	.	.	.	.
=49	=49	=49	=49	=49	=49	=49	=49
16c	called	.	.	.	.	.	.
16B	her	.	.	.	.	.	.
16A	room,	.	.	.	.	.	.
16A	a	.	.	.	.	.	.
16A	guy	.	.	.	.	.	.
16A	picked	.	.	.	.	.	.
16A	up,	.	.	.	.	.	.
16A	but	.	.	.	.	.	.
=50	=50	=50	=50	=50	=50	=50	=50
16A	then	1FM	.	voice	.	138.555	F:maj
16A	I	.	.	.	.	.	.
16A	called	.	.	.	.	.	.
16A	a-	.	.	.	.	.	.
16A	-gain,	.	.	.	J	.	.
16c	I	.	.	.	.	.	.
8A	say,	.	.	.	.	.	.
=50	=50	=50	=50	=50	=50	=50	=50
16A	\\\"yo,	.	.	.	.	.	.
16r	.	.	.	.	.	.	.
16dd	who	.	.	.	.	.	.
16b	was	.	.	.	.	.	.
8a	that	.	.	.	.	.	.
8r	.	.	.	.	.	.	.
=51	=51	=51	=51	=51	=51	=51	=51
8A	\\\"Oh,	1Dm	.	voice	.	141.364	D:min/b3
8c	he's	.	.	.	.	.	.
8B	just	.	.	.	.	.	.
8A	a	.	.	.	.	.	.
=51	=51	=51	=51	=51	=51	=51	=51
4F	friend.\\\"	.	.	.	J	.	.
8r	.	.	.	.	.	.	.
8c	(sucksteeth)	.	.	.	.	.	.
=52	=52	=52	=52	=52	=52	=52	=52
12gg	Don't	2Dm	.	voice	.	144.174	D:min/b3
12c	gim-	.	.	.	.	.	.
12F	-me	.	.	.	.	.	.
8G	that	.	.	.	.	.	.
8r	.	.	.	.	.	.	.
=52	=52	=52	=52	=52	=52	=52	=52
8r	.	2GMm	.	voice	.	145.579	G:7
16e	Don't	.	.	.	.	.	.
16d	e-	.	.	.	.	.	.
16c	-ven	.	.	.	.	.	.
16d	gim-	.	.	.	.	.	.
16c	-me	.	.	.	.	.	.
16A	that!	.	.	.	.	.	.
=53	=53	=53	=53	=53	=53	=53	=53
*>Letter>B	*>Letter>B	*>Letter>B	*>Letter>B	*>Letter>B	*>Letter>B	*>Letter>B	*>Letter>B
*>Label>Chorus	*>Label>Chorus	*>Label>Chorus	*>Label>Chorus	*>Label>Chorus	*>Label>Chorus	*>Label>Chorus	*>Label>Chorus
16r	.	1CM	newline	voice	.	146.984	C:maj
16c	Jus'	.	.	.	.	.	.
8c	bust	.	.	.	.	.	.
8A	this	.	.	.	.	.	.
8r	.	.	.	.	.	.	.
=53	=53	=53	=53	=53	=53	=53	=53
4.e	You!	.	.	.	.	.	.
8r	.	.	.	.	.	.	.
=54	=54	=54	=54	=54	=54	=54	=54
16r	.	1FM	.	voice	.	149.799	F:maj
8e	You	.	.	.	.	.	.
16e	got	.	.	.	.	.	.
16r	.	.	.	.	.	.	.
16d	what	.	.	.	.	.	.
8e	I	.	.	.	.	.	.
=54	=54	=54	=54	=54	=54	=54	=54
8d#q	_	.	.	.	.	.	.
4e	need	.	.	.	.	.	.
4d	_	.	.	.	.	.	.
=55	=55	=55	=55	=55	=55	=55	=55
4r	.	1Dm	.	voice	.	152.613	D:min/b3
16r	.	.	.	.	.	.	.
16A	But	.	.	.	.	.	.
8c	you	.	.	.	.	.	.
=55	=55	=55	=55	=55	=55	=55	=55
8d	say	.	.	.	.	.	.
8e	he's	.	.	.	.	.	.
8d	just	.	.	.	.	.	.
16c	a	.	.	.	.	.	.
[16d	friend	.	.	.	.	.	.
=56	=56	=56	=56	=56	=56	=56	=56
8d]	_	2Dm	.	voice	.	155.428	D:min/b3
8r	.	.	.	.	.	.	.
8r	.	.	.	.	.	.	.
16A	and	.	.	.	.	.	.
16c	you	.	.	.	.	.	.
=56	=56	=56	=56	=56	=56	=56	=56
8d	say	2GMm	.	voice	.	156.835	G:7
8e	he's	.	.	.	.	.	.
8d	just	.	.	.	.	.	.
16c	a	.	.	.	.	.	.
16d	friend	.	.	.	.	.	.
=57	=57	=57	=57	=57	=57	=57	=57
16r	.	1CM	newline	voice	.	158.243	C:maj
8.~g	oh	.	.	.	.	.	.
8g	ba-	.	.	.	.	.	.
8g	-by,	.	.	.	.	.	.
=57	=57	=57	=57	=57	=57	=57	=57
2e	you	.	.	.	.	.	.
=58	=58	=58	=58	=58	=58	=58	=58
8r	.	1FM	.	voice	.	161.059	F:maj
16r	.	.	.	.	.	.	.
[16~g	Got	.	.	.	.	.	.
16~g]	_	.	.	.	.	.	.
16d	what	.	.	.	.	.	.
8e	I	.	.	.	.	.	.
=58	=58	=58	=58	=58	=58	=58	=58
8d#q	_	.	.	.	.	.	.
4e	_	.	.	.	.	.	.
4d	_	.	.	.	.	.	.
=59	=59	=59	=59	=59	=59	=59	=59
4r	.	1Dm	.	voice	.	163.875	D:min/b3
16r	.	.	.	.	.	.	.
16A	and	.	.	.	.	.	.
8c	you	.	.	.	.	.	.
=59	=59	=59	=59	=59	=59	=59	=59
8~d	say	.	.	.	.	.	.
8~e	he's	.	.	.	.	.	.
8~d	just	.	.	.	.	.	.
16~c	a	.	.	.	.	.	.
[16~d	friend	.	.	.	.	.	.
=60	=60	=60	=60	=60	=60	=60	=60
8~d]	_	2Dm	.	voice	.	166.69	D:min/b3
8r	.	.	.	.	.	.	.
8r	.	.	.	.	.	.	.
16~A	and	.	.	.	.	.	.
16~c	you	.	.	.	.	.	.
=60	=60	=60	=60	=60	=60	=60	=60
8d	say	2GMm	.	voice	.	168.098	G:7
8e	he's	.	.	.	.	.	.
8d	just	.	.	.	.	.	.
16c	a	.	.	.	.	.	.
16d	friend	.	.	.	.	.	.
=61	=61	=61	=61	=61	=61	=61	=61
16r	.	1CM	newline	voice	.	169.506	C:maj
[8.~g	oh,	.	.	.	.	.	.
8g]	_	.	.	.	.	.	.
8g	ba	.	.	.	.	.	.
=61	=61	=61	=61	=61	=61	=61	=61
8g	_	.	.	.	.	.	.
8g	by,	.	.	.	.	.	.
4e	you	.	.	.	.	.	.
=62	=62	=62	=62	=62	=62	=62	=62
8r	.	1FM	.	voice	.	172.324	F:maj
16r	.	.	.	.	.	.	.
[16~g	Got	.	.	.	.	.	.
16~g]	_	.	.	.	.	.	.
16d	what	.	.	.	.	.	.
8e	I	.	.	.	.	.	.
=62	=62	=62	=62	=62	=62	=62	=62
8d#q	_	.	.	.	.	.	.
4e	need	.	.	.	.	.	.
4d	_	.	.	.	.	.	.
=63	=63	=63	=63	=63	=63	=63	=63
4r	.	1Dm	.	voice	.	175.142	D:min/b3
16r	.	.	.	.	.	.	.
16A	But	.	.	.	.	.	.
8c	you	.	.	.	.	.	.
=63	=63	=63	=63	=63	=63	=63	=63
8~d	say	.	.	.	.	.	.
8~e	he's	.	.	.	.	.	.
8~d	just	.	.	.	.	.	.
16~c	a	.	.	.	.	.	.
[16~d	friend	.	.	.	.	.	.
=64	=64	=64	=64	=64	=64	=64	=64
8~d]	_	2Dm	.	voice	.	177.96	D:min/b3
8r	.	.	.	.	.	.	.
8r	.	.	.	.	.	.	.
16~A	and	.	.	.	.	.	.
16~c	you	.	.	.	.	.	.
=64	=64	=64	=64	=64	=64	=64	=64
8~d	say	2GMm	.	voice	.	179.369	G:7
8~e	he's	.	.	.	.	.	.
8d	just	.	.	.	.	.	.
8c	a	.	.	.	.	.	.
=65	=65	=65	=65	=65	=65	=65	=65
*>Letter>A	*>Letter>A	*>Letter>A	*>Letter>A	*>Letter>A	*>Letter>A	*>Letter>A	*>Letter>A
*>Label>Verse	*>Label>Verse	*>Label>Verse	*>Label>Verse	*>Label>Verse	*>Label>Verse	*>Label>Verse	*>Label>Verse
4~d	friend	1CM	newline	voice	.	180.778	C:maj
8r	.	.	.	.	.	.	.
16e	So	.	.	.	.	.	.
16e	I	.	.	.	.	.	.
=65	=65	=65	=65	=65	=65	=65	=65
16d	came	.	.	.	.	.	.
16d	to	.	.	.	.	.	.
16A	her	.	.	.	.	.	.
[16A	col	.	.	.	.	.	.
16A]	_	.	.	.	.	.	.
16A	lege	.	.	.	.	.	.
16A	on	.	.	.	.	.	.
16A	a	.	.	.	.	.	.
=66	=66	=66	=66	=66	=66	=66	=66
16A	sur-	1FM	.	voice	.	183.58	F:maj
8A	-prise	.	.	.	.	.	.
[16A	vi	.	.	.	(S	.	.
16A]	_	.	.	.	.	.	.
16A	sit	.	.	.	s)	.	.
16r	.	.	.	.	.	.	.
16A	to	.	.	.	.	.	.
=66	=66	=66	=66	=66	=66	=66	=66
8c	see	.	.	.	.	.	.
8A	my	.	.	.	.	.	.
8B	girl,	.	.	.	.	.	.
16A	that	.	.	.	.	.	.
16A	was	.	.	.	.	.	.
=67	=67	=67	=67	=67	=67	=67	=67
16A	so	1Dm	.	voice	.	186.382	D:min/b3
8A	ex-	.	.	.	.	.	.
[16A	-qui	.	.	.	(S	.	.
16A]	_	.	.	.	.	.	.
16A	site	.	.	.	s)	.	.
16r	.	.	.	.	.	.	.
16A	It	.	.	.	.	.	.
=67	=67	=67	=67	=67	=67	=67	=67
16G	was	.	.	.	.	.	.
16F	a	.	.	.	.	.	.
8d	school	.	.	.	.	.	.
8A	day	.	.	.	.	.	.
16r	.	.	.	.	.	.	.
16d	I	.	.	.	.	.	.
=68	=68	=68	=68	=68	=68	=68	=68
16e	knew	2Dm	.	voice	T	189.184	D:min/b3
16d	she	.	.	.	.	.	.
8c	was	.	.	.	.	.	.
8A	there	.	.	.	U	.	.
16r	.	.	.	.	.	.	.
16A	The	.	.	.	.	.	.
=68	=68	=68	=68	=68	=68	=68	=68
8A	first	2GMm	.	voice	.	190.585	G:7
16G	se-	.	.	.	.	.	.
[16A	-mes	.	.	.	.	.	.
16A]	_	.	.	.	.	.	.
8A	ter	.	.	.	.	.	.
[16A	of	.	.	.	.	.	.
=69	=69	=69	=69	=69	=69	=69	=69
16A]	_	1CM	newline	voice	.	191.986	C:maj
16G	the	.	.	.	.	.	.
8c	school	.	.	.	T	.	.
8A	year	.	.	.	U	.	.
16r	.	.	.	.	.	.	.
16c	I	.	.	.	.	.	.
=69	=69	=69	=69	=69	=69	=69	=69
16d	went	.	.	.	.	.	.
16A	to	.	.	.	.	.	.
16A	a	.	.	.	.	.	.
[16A	gate	.	.	.	.	.	.
16A]	_	.	.	.	.	.	.
16A	to	.	.	.	.	.	.
8A	ask	.	.	.	.	.	.
=70	=70	=70	=70	=70	=70	=70	=70
16A	where	1FM	.	voice	(V	194.799	F:maj
16A	was	.	.	.	.	.	.
16A	her	.	.	.	.	.	.
[16A	dorm	.	.	.	V)	.	.
8A]	_	.	.	.	.	.	.
16r	.	.	.	.	.	.	.
16A	this	.	.	.	.	.	.
=70	=70	=70	=70	=70	=70	=70	=70
16A	guy	.	.	.	.	.	.
16A	made	.	.	.	.	.	.
16A	me	.	.	.	.	.	.
[16A	fill	.	.	.	.	.	.
16A]	_	.	.	.	.	.	.
16A	out	.	.	.	.	.	.
16r	.	.	.	.	.	.	.
16B	a	.	.	.	.	.	.
=71	=71	=71	=71	=71	=71	=71	=71
16c	vi-	1Dm	.	voice	(V	197.613	D:min/b3
16A	-si-	.	.	.	.	.	.
8A	-tor's	.	.	.	.	.	.
8A	form	.	.	.	V)	.	.
16r	.	.	.	.	.	.	.
16B	He	.	.	.	.	.	.
=71	=71	=71	=71	=71	=71	=71	=71
16c	told	.	.	.	.	.	.
16c	me	.	.	.	.	.	.
16c	where	.	.	.	.	.	.
16c	it	.	.	.	.	.	.
8A	was	.	.	.	.	.	.
16r	.	.	.	.	.	.	.
16G	and	.	.	.	.	.	.
=72	=72	=72	=72	=72	=72	=72	=72
16A	I	2Dm	.	voice	.	200.426	D:min/b3
16A	was	.	.	.	.	.	.
16A	on	.	.	.	.	.	.
16A	my	.	.	.	.	.	.
8G	way	.	.	.	W	.	.
16r	.	.	.	.	.	.	.
16A	to	.	.	.	.	.	.
=72	=72	=72	=72	=72	=72	=72	=72
16B	see	2GMm	.	voice	.	201.833	G:7
16A	my	.	.	.	.	.	.
16A	ba-	.	.	.	.	.	.
16A	-by	.	.	.	.	.	.
8A	doll,	.	.	.	.	.	.
16A	I	.	.	.	.	.	.
16A	was	.	.	.	.	.	.
=73	=73	=73	=73	=73	=73	=73	=73
16G	hap-	1CM	newline	voice	.	203.239	C:maj
16G	-py	.	.	.	.	.	.
16G	to	.	.	.	.	.	.
[16A	say	.	.	.	W	.	.
8A]	_	.	.	.	.	.	.
16r	.	.	.	.	.	.	.
32B	I	.	.	.	.	.	.
32B	ar-	.	.	.	.	.	.
=73	=73	=73	=73	=73	=73	=73	=73
8c	-rived	.	.	.	.	.	.
16A	in	.	.	.	.	.	.
16A	front	.	.	.	.	.	.
16r	.	.	.	.	.	.	.
8A	of	.	.	.	.	.	.
16G	the	.	.	.	.	.	.
=74	=74	=74	=74	=74	=74	=74	=74
8A	dor-	1FM	.	voice	X	206.061	F:maj
16A	-mi-	.	.	.	.	.	.
[16A	-to	.	.	.	(X	.	.
16A]	_	.	.	.	.	.	.
16A	ry	.	.	.	x)	.	.
16.r	.	.	.	.	.	.	.
[32d	\\\"yo,	.	.	.	.	.	.
=74	=74	=74	=74	=74	=74	=74	=74
16d]	_	.	.	.	.	.	.
8d	could	.	.	.	.	.	.
16c	you	.	.	.	.	.	.
16A	tell	.	.	.	.	.	.
16A	me	.	.	.	.	.	.
8A	where	.	.	.	.	.	.
=75	=75	=75	=75	=75	=75	=75	=75
8A	is	1Dm	.	voice	.	208.882	D:min/b3
8A	door	.	.	.	(X	.	.
8A	three	.	.	.	x)	.	.
16r	.	.	.	.	.	.	.
16B	They	.	.	.	.	.	.
=75	=75	=75	=75	=75	=75	=75	=75
16c	showed	.	.	.	.	.	.
16c	me	.	.	.	.	.	.
16c	where	.	.	.	.	.	.
16c	it	.	.	.	.	.	.
8A	was	.	.	.	.	.	.
8r	.	.	.	.	.	.	.
=76	=76	=76	=76	=76	=76	=76	=76
8A	for	2Dm	.	voice	.	211.703	D:min/b3
16A	the	.	.	.	.	.	.
[16A	mo	.	.	.	.	.	.
16A]	_	.	.	.	.	.	.
16A	ment	.	.	.	Y	.	.
16r	.	.	.	.	.	.	.
16c	I	.	.	.	.	.	.
=76	=76	=76	=76	=76	=76	=76	=76
16B	did-	2GMm	.	voice	.	213.114	G:7
16B	-n't	.	.	.	.	.	.
8B	know	.	.	.	.	.	.
16c	I	.	.	.	.	.	.
16A	was	.	.	.	.	.	.
16A	in	.	.	.	.	.	.
16G	for	.	.	.	.	.	.
=77	=77	=77	=77	=77	=77	=77	=77
16A	such	1CM	newline	voice	.	214.524	C:maj
16A	an	.	.	.	.	.	.
16A	e-	.	.	.	.	.	.
16A	-vent	.	.	.	Y	.	.
8r	.	.	.	.	.	.	.
16d	So,	.	.	.	.	.	.
16d	I	.	.	.	.	.	.
=77	=77	=77	=77	=77	=77	=77	=77
8d	came	.	.	.	.	.	.
16A	to	.	.	.	.	.	.
16A	her	.	.	.	.	.	.
8A	room	.	.	.	.	.	.
16r	.	.	.	.	.	.	.
16G	and	.	.	.	.	.	.
=78	=78	=78	=78	=78	=78	=78	=78
16A	o-	1FM	.	voice	.	217.33	F:maj
16A	-pened	.	.	.	.	.	.
16A	the	.	.	.	.	.	.
[16A	door	.	.	.	Z	.	.
8A]	_	.	.	.	.	.	.
8r	.	.	.	.	.	.	.
=78	=78	=78	=78	=78	=78	=78	=78
4e	Oh!	.	.	.	.	.	.
4d	Snap!	.	.	.	.	.	.
=79	=79	=79	=79	=79	=79	=79	=79
16A	Guess	1Dm	.	voice	.	220.136	D:min/b3
16A	what	.	.	.	.	.	.
16B	I	.	.	.	.	.	.
[16A	saw	.	.	.	Z	.	.
16A]	_	.	.	.	.	.	.
8r	.	.	.	.	.	.	.
16d	A	.	.	.	.	.	.
=79	=79	=79	=79	=79	=79	=79	=79
16d	fel-	.	.	.	.	.	.
16c	-la	.	.	.	.	.	.
8A	tongue	.	.	.	.	.	.
16A	kis-	.	.	.	.	.	.
16A	-sing	.	.	.	.	.	.
8A	my	.	.	.	.	.	.
=80	=80	=80	=80	=80	=80	=80	=80
16A	girl	2Dm	.	voice	.	222.942	D:min/b3
16A	in	.	.	.	.	.	.
16c	her	.	.	.	.	.	.
[16A	mouth	.	.	.	AA	.	.
16A]	_	.	.	.	.	.	.
16r	.	.	.	.	.	.	.
16c	I	.	.	.	.	.	.
16B	was	.	.	.	.	.	.
=80	=80	=80	=80	=80	=80	=80	=80
16c	so	2GMm	.	voice	.	224.344	G:7
8B	in	.	.	.	.	.	.
[16c	shock,	.	.	.	.	.	.
16c]	_	.	.	.	.	.	.
16B	my	.	.	.	.	.	.
8A	heart	.	.	.	.	.	.
=81	=81	=81	=81	=81	=81	=81	=81
8A	went	1CM	newline	voice	.	225.747	C:maj
8A	down	.	.	.	.	.	.
8G	south	.	.	.	AA	.	.
16r	.	.	.	.	.	.	.
16B	So	.	.	.	.	.	.
=81	=81	=81	=81	=81	=81	=81	=81
8d	please,	.	.	.	.	.	.
16B	lis-	.	.	.	.	.	.
16B	-ten	.	.	.	.	.	.
16B	to	.	.	.	.	.	.
16B	the	.	.	.	.	.	.
16B	mes-	.	.	.	.	.	.
16B	-sage	.	.	.	.	.	.
=82	=82	=82	=82	=82	=82	=82	=82
16A	that	1FM	.	voice	.	228.563	F:maj
8B	I	.	.	.	.	.	.
[16A	send	.	.	.	J	.	.
16A]	:	.	.	.	.	.	.
16d	don't	.	.	.	.	.	.
16c	e-	.	.	.	.	.	.
16A	-ver	.	.	.	.	.	.
=82	=82	=82	=82	=82	=82	=82	=82
8A	talk	.	.	.	.	.	.
16A	to	.	.	.	.	.	.
16B	a	.	.	.	.	.	.
16A	girl	.	.	.	.	.	.
16A	who	.	.	.	.	.	.
16A	says	.	.	.	.	.	.
16A	she	.	.	.	.	.	.
=83	=83	=83	=83	=83	=83	=83	=83
8A	just	1Dm	.	voice	.	231.379	D:min/b3
16A	has	.	.	.	.	.	.
16G	a	.	.	.	.	.	.
8A	friend.	.	.	.	J	.	.
16A	(Has	.	.	.	.	.	.
16G	a	.	.	.	.	.	.
=83	=83	=83	=83	=83	=83	=83	=83
8A	friend,	.	.	.	.	.	.
16A	has	.	.	.	.	.	.
16G	a	.	.	.	.	.	.
8A	friend,	.	.	.	.	.	.
16A	has	.	.	.	.	.	.
16G	a	.	.	.	.	.	.
=84	=84	=84	=84	=84	=84	=84	=84
8A	friend,	2Dm	.	voice	.	234.195	D:min/b3
16A	has	.	.	.	.	.	.
16G	a	.	.	.	.	.	.
8A	friend,	.	.	.	.	.	.
16A	has	.	.	.	.	.	.
16G	a	.	.	.	.	.	.
=84	=84	=84	=84	=84	=84	=84	=84
8A	friend,	2GMm	.	voice	.	235.603	G:7
16A	has	.	.	.	.	.	.
16G	a	.	.	.	.	.	.
8A	friend,	.	.	.	.	.	.
16A	has	.	.	.	.	.	.
16G	a	.	.	.	.	.	.
=85	=85	=85	=85	=85	=85	=85	=85
*>Label>>Fadeout	*>Label>>Fadeout	*>Label>>Fadeout	*>Label>>Fadeout	*>Label>>Fadeout	*>Label>>Fadeout	*>Label>>Fadeout	*>Label>>Fadeout
2r	.	1CM	newline	piano	.	237.011	C:maj
=85	=85	=85	=85	=85	=85	=85	=85
1r	.	.	.	.	.	.	.
.	.	1r;	.	r	.	238.957	N.C.
r;	.	.	.	.	.	.	.
r;	.	1r;	.	r	.	241.371	N.C.
*-	*-	*-	*-	*-	*-	*-	*-
!!!BillboardChartDate: 1990/02/10
!!!BillboardPeak: 9
!!!BillboardWeeksOnChart: 22
!!!COC: Biz Markie
!!!ENC: Nathaniel Condit-Schultz
!!!EST: Awating manual error checking and editing.
!!!OTL: Just A Friend
!!!RDF**chordsym: original McGill chord annotation + (implied pitch class set, with bass pitch in first position)
!!!RDF**harmony: **recip + pitch class of root + harmonic quality
!!!RDF**leadinstrument: original McGill primary instrumentation annotation
!!!RDF**phrase: newline = linebreak in original McGill transcription
!!!RDF**timestamp: McGill audio timestamp in seconds
!!!RDT: 2017/01/12/
!!!SampleActualRank: 29
!!!SampleID#: 0827
!!!SampleTargetRank: 28
